styles/1/Numix-Circle/48x48/apps/marlin.svg

<?xml version="1.0" encoding="UTF-8" standalone="no"?>
<svg
   xmlns:dc="http://purl.org/dc/elements/1.1/"
   xmlns:cc="http://creativecommons.org/ns#"
   xmlns:rdf="http://www.w3.org/1999/02/22-rdf-syntax-ns#"
   xmlns:svg="http://www.w3.org/2000/svg"
   xmlns="http://www.w3.org/2000/svg"
   xmlns:sodipodi="http://sodipodi.sourceforge.net/DTD/sodipodi-0.dtd"
   xmlns:inkscape="http://www.inkscape.org/namespaces/inkscape"
   viewBox="0 0 48 48"
   id="svg4399"
   version="1.1"
   inkscape:version="0.91 r"
   width="100%"
   height="100%"
   sodipodi:docname="marlin.svg">
  <metadata
     id="metadata4466">
    <rdf:RDF>
      <cc:Work
         rdf:about="">
        <dc:format>image/svg+xml</dc:format>
        <dc:type
           rdf:resource="http://purl.org/dc/dcmitype/StillImage" />
      </cc:Work>
    </rdf:RDF>
  </metadata>
  <sodipodi:namedview
     pagecolor="#ffffff"
     bordercolor="#666666"
     borderopacity="1"
     objecttolerance="10"
     gridtolerance="10"
     guidetolerance="10"
     inkscape:pageopacity="0"
     inkscape:pageshadow="2"
     inkscape:window-width="1280"
     inkscape:window-height="998"
     id="namedview4464"
     showgrid="false"
     inkscape:zoom="4.9166665"
     inkscape:cx="28.527117"
     inkscape:cy="26.449841"
     inkscape:window-x="0"
     inkscape:window-y="0"
     inkscape:window-maximized="1"
     inkscape:current-layer="svg4399" />
  <defs
     id="defs4401">
    <linearGradient
       id="linearGradient3764"
       x1="1"
       x2="47"
       gradientUnits="userSpaceOnUse"
       gradientTransform="matrix(0,-1,1,0,-1.5e-6,47.999998)">
      <stop
         stop-color="#019ad3"
         stop-opacity="1"
         id="stop4404" />
      <stop
         offset="1"
         stop-color="#01ace8"
         stop-opacity="1"
         id="stop4406" />
    </linearGradient>
  </defs>
  <g
     id="g4418">
    <path
       d="m 36.31 5 c 5.859 4.062 9.688 10.831 9.688 18.5 c 0 12.426 -10.07 22.5 -22.5 22.5 c -7.669 0 -14.438 -3.828 -18.5 -9.688 c 1.037 1.822 2.306 3.499 3.781 4.969 c 4.085 3.712 9.514 5.969 15.469 5.969 c 12.703 0 23 -10.298 23 -23 c 0 -5.954 -2.256 -11.384 -5.969 -15.469 c -1.469 -1.475 -3.147 -2.744 -4.969 -3.781 z m 4.969 3.781 c 3.854 4.113 6.219 9.637 6.219 15.719 c 0 12.703 -10.297 23 -23 23 c -6.081 0 -11.606 -2.364 -15.719 -6.219 c 4.16 4.144 9.883 6.719 16.219 6.719 c 12.703 0 23 -10.298 23 -23 c 0 -6.335 -2.575 -12.06 -6.719 -16.219 z"
       opacity="0.05"
       id="path4420" />
    <path
       d="m 41.28 8.781 c 3.712 4.085 5.969 9.514 5.969 15.469 c 0 12.703 -10.297 23 -23 23 c -5.954 0 -11.384 -2.256 -15.469 -5.969 c 4.113 3.854 9.637 6.219 15.719 6.219 c 12.703 0 23 -10.298 23 -23 c 0 -6.081 -2.364 -11.606 -6.219 -15.719 z"
       opacity="0.1"
       id="path4422" />
    <path
       d="m 31.25 2.375 c 8.615 3.154 14.75 11.417 14.75 21.13 c 0 12.426 -10.07 22.5 -22.5 22.5 c -9.708 0 -17.971 -6.135 -21.12 -14.75 a 23 23 0 0 0 44.875 -7 a 23 23 0 0 0 -16 -21.875 z"
       opacity="0.2"
       id="path4424" />
  </g>
  <g
     id="g4426">
    <path
       d="m 24 1 c 12.703 0 23 10.297 23 23 c 0 12.703 -10.297 23 -23 23 -12.703 0 -23 -10.297 -23 -23 0 -12.703 10.297 -23 23 -23 z"
       fill="url(#linearGradient3764)"
       fill-opacity="1"
       id="path4428" />
  </g>
  <g
     id="g4430" />
  <path
     style="opacity:0.1;fill:#000000;fill-opacity:1;fill-rule:nonzero;stroke:none"
     d="M 13.8125 16 C 13.371575 16.05099 12.997 16.464595 13 16.9375 L 13 34.03125 C 13.000057 34.53115 13.434329 35 13.90625 35 L 36 35 C 36.472925 35 37 34.4999 37 34 L 37 19 C 37 18.5001 36.472925 18 36 18 L 27 18 L 27 17 C 26.9987 16.35213 26.550909 16 26 16 L 13.8125 16 z M 21.25 20.21875 L 24.21875 21.65625 C 24.21875 21.65625 26.3515 21.0705 26.9375 22.3125 C 26.9375 22.3125 28.08225 21.90625 29.28125 22.28125 C 29.28125 22.28125 28.80875 22.82875 28.84375 24.09375 C 28.84375 24.09375 29.145 29.312 25.125 31.125 C 25.125 31.125 26.34775 32.5275 25.59375 33.9375 C 25.59375 33.9375 25.4295 33.2265 24.8125 32.5625 C 24.8125 32.5625 23.87875 31.6875 23.84375 31.3125 C 23.84375 31.3125 22.64075 31.46875 22.09375 30.71875 C 22.09375 30.71875 21.5385 30.26875 21.0625 30.21875 C 21.0625 30.21875 22.76925 29.836 24.28125 30.5 C 24.28125 30.5 25.5155 29.70775 25.6875 28.84375 L 24.65625 28.90625 C 24.65625 28.90625 24.87875 28.22625 25.84375 27.90625 C 25.84375 27.90625 25.7815 26.5075 25.4375 26.1875 C 25.4375 26.1875 24.04 26.176 23.25 26.75 C 23.25 26.75 24.2965 25.69875 24.8125 25.46875 C 24.8125 25.46875 23.5345 25.4095 22.8125 25.8125 C 22.8125 25.8125 23.5425 24.6675 24.0625 24.4375 C 24.0625 24.4375 23.40625 23.5505 23.40625 23.0625 C 23.40625 23.0625 22.6795 22.4775 22.4375 21.8125 L 23.5 22.4375 C 23.5 22.4375 22.471076 21.003229 21.25 20.21875 z "
     id="path45" />
  <g
     id="g4460">
    <path
       d="m 40.03 7.531 c 3.712 4.084 5.969 9.514 5.969 15.469 0 12.703 -10.297 23 -23 23 c -5.954 0 -11.384 -2.256 -15.469 -5.969 4.178 4.291 10.01 6.969 16.469 6.969 c 12.703 0 23 -10.298 23 -23 0 -6.462 -2.677 -12.291 -6.969 -16.469 z"
       opacity="0.1"
       id="path4462" />
  </g>
  <path
     style="fill:#ececec;fill-opacity:1;fill-rule:nonzero;stroke:none"
     d="M 12.8125 15 C 12.371574 15.05096 11.997001 15.496148 12 15.96875 L 12 33.03125 C 12.000059 33.53083 12.434329 34 12.90625 34 L 35 34 C 35.472922 34 36 33.499579 36 33 L 36 18.03125 C 36 17.531671 35.472922 17.03125 35 17.03125 L 26 17.03125 L 26 16 C 25.9987 15.352546 25.550907 15 25 15 L 12.8125 15 z M 20.25 19.21875 L 23.21875 20.65625 C 23.21875 20.65625 25.3515 20.0705 25.9375 21.3125 C 25.9375 21.3125 27.08225 20.90625 28.28125 21.28125 C 28.28125 21.28125 27.80875 21.82875 27.84375 23.09375 C 27.84375 23.09375 28.145 28.312 24.125 30.125 C 24.125 30.125 25.34775 31.5275 24.59375 32.9375 C 24.59375 32.9375 24.4295 32.2265 23.8125 31.5625 C 23.8125 31.5625 22.87875 30.6875 22.84375 30.3125 C 22.84375 30.3125 21.64075 30.46875 21.09375 29.71875 C 21.09375 29.71875 20.5385 29.26875 20.0625 29.21875 C 20.0625 29.21875 21.76925 28.836 23.28125 29.5 C 23.28125 29.5 24.5155 28.70775 24.6875 27.84375 L 23.65625 27.90625 C 23.65625 27.90625 23.87875 27.22625 24.84375 26.90625 C 24.84375 26.90625 24.7815 25.5075 24.4375 25.1875 C 24.4375 25.1875 23.04 25.176 22.25 25.75 C 22.25 25.75 23.2965 24.69875 23.8125 24.46875 C 23.8125 24.46875 22.5345 24.4095 21.8125 24.8125 C 21.8125 24.8125 22.5425 23.6675 23.0625 23.4375 C 23.0625 23.4375 22.40625 22.5505 22.40625 22.0625 C 22.40625 22.0625 21.6795 21.4775 21.4375 20.8125 L 22.5 21.4375 C 22.5 21.4375 21.471076 20.003229 20.25 19.21875 z "
     id="path55" />
</svg>

<svg xmlns="http://www.w3.org/2000/svg" viewBox="0 0 48 48">
 <defs>
  <linearGradient id="linearGradient3764" x1="1" x2="47" gradientUnits="userSpaceOnUse" gradientTransform="matrix(0,-1,1,0,-1.5e-6,47.999998)">
   <stop style="stop-color:#019ad3;stop-opacity:1"/>
   <stop offset="1" style="stop-color:#01ace8;stop-opacity:1"/>
  </linearGradient>
 </defs>
 <g>
  <path d="m 36.31 5 c 5.859 4.062 9.688 10.831 9.688 18.5 c 0 12.426 -10.07 22.5 -22.5 22.5 c -7.669 0 -14.438 -3.828 -18.5 -9.688 c 1.037 1.822 2.306 3.499 3.781 4.969 c 4.085 3.712 9.514 5.969 15.469 5.969 c 12.703 0 23 -10.298 23 -23 c 0 -5.954 -2.256 -11.384 -5.969 -15.469 c -1.469 -1.475 -3.147 -2.744 -4.969 -3.781 z m 4.969 3.781 c 3.854 4.113 6.219 9.637 6.219 15.719 c 0 12.703 -10.297 23 -23 23 c -6.081 0 -11.606 -2.364 -15.719 -6.219 c 4.16 4.144 9.883 6.719 16.219 6.719 c 12.703 0 23 -10.298 23 -23 c 0 -6.335 -2.575 -12.06 -6.719 -16.219 z" style="opacity:0.05"/>
  <path d="m 41.28 8.781 c 3.712 4.085 5.969 9.514 5.969 15.469 c 0 12.703 -10.297 23 -23 23 c -5.954 0 -11.384 -2.256 -15.469 -5.969 c 4.113 3.854 9.637 6.219 15.719 6.219 c 12.703 0 23 -10.298 23 -23 c 0 -6.081 -2.364 -11.606 -6.219 -15.719 z" style="opacity:0.1"/>
  <path d="m 31.25 2.375 c 8.615 3.154 14.75 11.417 14.75 21.13 c 0 12.426 -10.07 22.5 -22.5 22.5 c -9.708 0 -17.971 -6.135 -21.12 -14.75 a 23 23 0 0 0 44.875 -7 a 23 23 0 0 0 -16 -21.875 z" style="opacity:0.2"/>
 </g>
 <g>
  <path d="m 24 1 c 12.703 0 23 10.297 23 23 c 0 12.703 -10.297 23 -23 23 -12.703 0 -23 -10.297 -23 -23 0 -12.703 10.297 -23 23 -23 z" style="fill:url(#linearGradient3764);fill-opacity:1"/>
 </g>
 <path d="m 13.813 16 c -0.441 0.051 -0.816 0.465 -0.813 0.938 l 0 17.09 c 0 0.5 0.434 0.969 0.906 0.969 l 22.09 0 c 0.473 0 1 -0.5 1 -1 l 0 -15 c 0 -0.5 -0.527 -1 -1 -1 l -9 0 l 0 -1 c 0 -0.648 -0.449 -1 -1 -1 l -12.188 0 z m 7.438 4.219 l 2.969 1.438 c 0 0 2.133 -0.586 2.719 0.656 c 0 0 1.145 -0.406 2.344 -0.031 c 0 0 -0.473 0.547 -0.438 1.813 c 0 0 0.301 5.218 -3.719 7.03 c 0 0 1.223 1.403 0.469 2.813 c 0 0 -0.164 -0.711 -0.781 -1.375 c 0 0 -0.934 -0.875 -0.969 -1.25 c 0 0 -1.203 0.156 -1.75 -0.594 c 0 0 -0.555 -0.45 -1.031 -0.5 c 0 0 1.707 -0.383 3.219 0.281 c 0 0 1.234 -0.792 1.406 -1.656 l -1.031 0.063 c 0 0 0.223 -0.68 1.188 -1 c 0 0 -0.062 -1.399 -0.406 -1.719 c 0 0 -1.398 -0.012 -2.188 0.563 c 0 0 1.047 -1.051 1.563 -1.281 c 0 0 -1.278 -0.059 -2 0.344 c 0 0 0.73 -1.145 1.25 -1.375 c 0 0 -0.656 -0.887 -0.656 -1.375 c 0 0 -0.727 -0.585 -0.969 -1.25 l 1.063 0.625 c 0 0 -1.029 -1.434 -2.25 -2.219 z" style="fill:#000;opacity:0.1;fill-opacity:1;stroke:none;fill-rule:nonzero"/>
 <g>
  <path d="m 40.03 7.531 c 3.712 4.084 5.969 9.514 5.969 15.469 0 12.703 -10.297 23 -23 23 c -5.954 0 -11.384 -2.256 -15.469 -5.969 4.178 4.291 10.01 6.969 16.469 6.969 c 12.703 0 23 -10.298 23 -23 0 -6.462 -2.677 -12.291 -6.969 -16.469 z" style="opacity:0.1"/>
 </g>
 <path d="m 12.813 15 c -0.441 0.051 -0.815 0.496 -0.813 0.969 l 0 17.06 c 0 0.5 0.434 0.969 0.906 0.969 l 22.09 0 c 0.473 0 1 -0.5 1 -1 l 0 -14.969 c 0 -0.5 -0.527 -1 -1 -1 l -9 0 l 0 -1.031 c 0 -0.647 -0.449 -1 -1 -1 l -12.188 0 z m 7.438 4.219 l 2.969 1.438 c 0 0 2.133 -0.586 2.719 0.656 c 0 0 1.145 -0.406 2.344 -0.031 c 0 0 -0.473 0.547 -0.438 1.813 c 0 0 0.301 5.218 -3.719 7.03 c 0 0 1.223 1.402 0.469 2.813 c 0 0 -0.164 -0.711 -0.781 -1.375 c 0 0 -0.934 -0.875 -0.969 -1.25 c 0 0 -1.203 0.156 -1.75 -0.594 c 0 0 -0.555 -0.45 -1.031 -0.5 c 0 0 1.707 -0.383 3.219 0.281 c 0 0 1.234 -0.792 1.406 -1.656 l -1.031 0.063 c 0 0 0.223 -0.68 1.188 -1 c 0 0 -0.062 -1.399 -0.406 -1.719 c 0 0 -1.398 -0.012 -2.188 0.563 c 0 0 1.047 -1.051 1.563 -1.281 c 0 0 -1.278 -0.059 -2 0.344 c 0 0 0.73 -1.145 1.25 -1.375 c 0 0 -0.656 -0.887 -0.656 -1.375 c 0 0 -0.727 -0.585 -0.969 -1.25 l 1.063 0.625 c 0 0 -1.029 -1.434 -2.25 -2.219 z" style="fill:#ececec;fill-opacity:1;stroke:none;fill-rule:nonzero"/>
</svg>
